X:398
T: Pourquoi faut-il qu'une personne chante? ((122), S. 281
N: T0287
O: Luxemburg
S: Singendes Volk, Esch-Alzette 1937 posth.]
N: Medernach, fff Anna Petry, 7.2.1916
R: Liebeslieder]
M: 4/4
L: 1/16
K: C
G2G2c2 | c6E2E2D2A2G2 | G4F4z2
F2E2D2 | d6c2B2A2G2F2 | E8z2
c2c2c2 | c4G4c2c2c2e2 | e4d4z2
c2c2A2 | G6G2G2G2A2F2 | E8z2
decBA2 | G6G2c2d2f2B2 | c8z2

@@@ Tune index: 8452
